assets/img/careers/noun_Certificate_1496088.svg

<svg width="52" height="70" viewBox="0 0 52 70" fill="none" xmlns="http://www.w3.org/2000/svg">
<path d="M9.24858 10.2029H42.3337C42.9785 10.2029 43.5004 9.68101 43.5004 9.03623C43.5004 8.39146 42.9785 7.86957 42.3337 7.86957H9.24858C8.6038 7.86957 8.08191 8.39146 8.08191 9.03623C8.08191 9.68101 8.6038 10.2029 9.24858 10.2029Z" fill="#5e2ced"/>
<path d="M9.24858 17.9301H15.3884C16.0331 17.9301 16.555 17.4082 16.555 16.7634C16.555 16.1187 16.0331 15.5968 15.3884 15.5968H9.24858C8.6038 15.5968 8.08191 16.1187 8.08191 16.7634C8.08191 17.4082 8.6038 17.9301 9.24858 17.9301Z" fill="#5e2ced"/>
<path d="M42.3336 15.5968H20.055C19.4102 15.5968 18.8883 16.1187 18.8883 16.7634C18.8883 17.4082 19.4102 17.9301 20.055 17.9301H42.3336C42.9784 17.9301 43.5003 17.4082 43.5003 16.7634C43.5003 16.1187 42.9784 15.5968 42.3336 15.5968Z" fill="#5e2ced"/>
<path d="M9.24858 25.6565H42.3337C42.9785 25.6565 43.5004 25.1347 43.5004 24.4899C43.5004 23.8451 42.9785 23.3232 42.3337 23.3232H9.24858C8.6038 23.3232 8.08191 23.8451 8.08191 24.4899C8.08191 25.1347 8.6038 25.6565 9.24858 25.6565Z" fill="#5e2ced"/>
<path d="M28.1354 32.2171C28.1354 31.5723 27.6135 31.0504 26.9687 31.0504H9.24858C8.6038 31.0504 8.08191 31.5723 8.08191 32.2171C8.08191 32.8619 8.6038 33.3838 9.24858 33.3838H26.9687C27.6135 33.3838 28.1354 32.8619 28.1354 32.2171Z" fill="#5e2ced"/>
<path d="M29.722 69.8709C29.89 69.9572 30.0728 70 30.2548 70C30.4943 70 30.7323 69.9261 30.9346 69.7814L35.6323 66.4137L40.3363 69.7822C40.691 70.0366 41.16 70.0708 41.5489 69.8709C41.9378 69.671 42.182 69.2704 42.182 68.8333V54.4654C43.1317 53.6768 43.9312 52.7178 44.5472 51.6398H50.4148C51.0596 51.6398 51.5814 51.1179 51.5814 50.4731V1.16667C51.5814 0.521889 51.0596 0 50.4148 0H1.16667C0.521889 0 0 0.521889 0 1.16667V37.4632C0 37.4632 0 37.4632 0 37.464C0 37.6141 0.0311103 37.7572 0.0824437 37.8887C0.084777 37.8949 0.0855547 37.9011 0.0878881 37.9073C0.146999 38.0504 0.232555 38.1803 0.340666 38.2877C0.340666 38.2877 0.340666 38.2884 0.341444 38.2884L13.3443 51.2976C13.4524 51.4057 13.5823 51.492 13.7254 51.5511C13.7317 51.5534 13.7371 51.5542 13.7433 51.5566C13.8756 51.6087 14.0187 51.6398 14.1688 51.6398H26.7182C27.335 52.7193 28.1361 53.6799 29.0873 54.4693V68.8333C29.0881 69.2712 29.3331 69.6718 29.722 69.8709ZM39.8494 66.563L36.3113 64.0298C35.9061 63.7389 35.3586 63.7389 34.9526 64.0298L31.4214 66.5607V55.9191C32.7087 56.5009 34.1312 56.833 35.6331 56.833C37.1366 56.833 38.5607 56.5001 39.8487 55.9176V66.563H39.8494ZM13.0029 47.6552L3.983 38.6299H13.0029V47.6552ZM15.3362 49.3064V37.4632C15.3362 36.8184 14.8143 36.2966 14.1696 36.2966H2.33333V2.33333H49.2489V49.3064H45.5187C45.7613 48.4322 45.9013 47.516 45.9013 46.5656C45.9013 40.9041 41.2953 36.2973 35.6331 36.2973C33.0237 36.2973 30.5356 37.2773 28.6292 39.0577C28.1587 39.4971 28.133 40.236 28.5724 40.7066C29.0119 41.1771 29.75 41.2028 30.2213 40.7633C31.6952 39.3874 33.6171 38.6307 35.6331 38.6307C40.0081 38.6307 43.568 42.1906 43.568 46.5656C43.568 50.9406 40.0081 54.4989 35.6331 54.4989C31.2581 54.4989 27.699 50.9398 27.699 46.5648C27.699 45.6058 27.8678 44.6686 28.2014 43.7796C28.4278 43.1768 28.1213 42.504 27.5186 42.2777C26.9181 42.0529 26.243 42.357 26.0167 42.9606C25.585 44.1124 25.3664 45.325 25.3664 46.5648C25.3664 47.5152 25.5064 48.4322 25.7491 49.3057H15.3362V49.3064Z" fill="#5e2ced"/>
</svg>

<?xml version="1.0" encoding="utf-8"?>
<!-- Generator: Adobe Illustrator 24.0.1, SVG Export Plug-In . SVG Version: 6.00 Build 0)  -->
<svg version="1.1" id="Слой_1" xmlns="http://www.w3.org/2000/svg" xmlns:xlink="http://www.w3.org/1999/xlink" x="0px" y="0px"
	 viewBox="0 0 52 70" style="enable-background:new 0 0 52 70;" xml:space="preserve">
<style type="text/css">
	.st0{fill:#FFFFFF;}
</style>
<path class="st0" d="M9.2,10.2h33.1c0.6,0,1.2-0.5,1.2-1.2c0-0.6-0.5-1.2-1.2-1.2H9.2C8.6,7.9,8.1,8.4,8.1,9
	C8.1,9.7,8.6,10.2,9.2,10.2z"/>
<path class="st0" d="M9.2,17.9h6.1c0.6,0,1.2-0.5,1.2-1.2c0-0.6-0.5-1.2-1.2-1.2H9.2c-0.6,0-1.2,0.5-1.2,1.2
	C8.1,17.4,8.6,17.9,9.2,17.9z"/>
<path class="st0" d="M42.3,15.6H20.1c-0.6,0-1.2,0.5-1.2,1.2c0,0.6,0.5,1.2,1.2,1.2h22.3c0.6,0,1.2-0.5,1.2-1.2
	C43.5,16.1,43,15.6,42.3,15.6z"/>
<path class="st0" d="M9.2,25.7h33.1c0.6,0,1.2-0.5,1.2-1.2s-0.5-1.2-1.2-1.2H9.2c-0.6,0-1.2,0.5-1.2,1.2S8.6,25.7,9.2,25.7z"/>
<path class="st0" d="M28.1,32.2c0-0.6-0.5-1.2-1.2-1.2H9.2c-0.6,0-1.2,0.5-1.2,1.2c0,0.6,0.5,1.2,1.2,1.2H27
	C27.6,33.4,28.1,32.9,28.1,32.2z"/>
<path class="st0" d="M29.7,69.9c0.2,0.1,0.4,0.1,0.5,0.1c0.2,0,0.5-0.1,0.7-0.2l4.7-3.4l4.7,3.4c0.4,0.3,0.8,0.3,1.2,0.1
	c0.4-0.2,0.6-0.6,0.6-1V54.5c0.9-0.8,1.7-1.7,2.4-2.8h5.9c0.6,0,1.2-0.5,1.2-1.2V1.2c0-0.6-0.5-1.2-1.2-1.2H1.2C0.5,0,0,0.5,0,1.2
	v36.3c0,0,0,0,0,0c0,0.2,0,0.3,0.1,0.4c0,0,0,0,0,0c0.1,0.1,0.1,0.3,0.3,0.4c0,0,0,0,0,0l13,13c0.1,0.1,0.2,0.2,0.4,0.3c0,0,0,0,0,0
	c0.1,0.1,0.3,0.1,0.4,0.1h12.5c0.6,1.1,1.4,2,2.4,2.8v14.4C29.1,69.3,29.3,69.7,29.7,69.9z M39.8,66.6L36.3,64c-0.4-0.3-1-0.3-1.4,0
	l-3.5,2.5V55.9c1.3,0.6,2.7,0.9,4.2,0.9c1.5,0,2.9-0.3,4.2-0.9L39.8,66.6L39.8,66.6z M13,47.7l-9-9h9V47.7z M15.3,49.3V37.5
	c0-0.6-0.5-1.2-1.2-1.2H2.3v-34h46.9v47h-3.7c0.2-0.9,0.4-1.8,0.4-2.7c0-5.7-4.6-10.3-10.3-10.3c-2.6,0-5.1,1-7,2.8
	c-0.5,0.4-0.5,1.2-0.1,1.6c0.4,0.5,1.2,0.5,1.6,0.1c1.5-1.4,3.4-2.1,5.4-2.1c4.4,0,7.9,3.6,7.9,7.9s-3.6,7.9-7.9,7.9
	s-7.9-3.6-7.9-7.9c0-1,0.2-1.9,0.5-2.8c0.2-0.6-0.1-1.3-0.7-1.5c-0.6-0.2-1.3,0.1-1.5,0.7c-0.4,1.2-0.7,2.4-0.7,3.6
	c0,1,0.1,1.9,0.4,2.7L15.3,49.3L15.3,49.3z"/>
</svg>
